X:286
T: MIT DER FREUDE ZIEHT DER SCHMERZ
N: B0764
O: Europa, Mitteleuropa, Deutschland
R: Moral - Lied, religioes
M: 4/4
L: 1/8
K: Eb
 | B2B2e3B | G2A2B4
B2=B2c2f2 | e4d4
e3c=B2G2 | e3cc2=B2
c3AG2C2 | c3AA2G2
c3AG2C2 | c3AA2G2
F2G2A2=A2 | B3cB4
=B2c2d2e2 | E4G3F | E6z2

